src/epub/images/titlepage.svg

<?xml version="1.0" encoding="utf-8"?>
<svg xmlns="http://www.w3.org/2000/svg" xmlns:svg="http://www.w3.org/2000/svg" version="1.1" viewBox="0 0 1400 340">
	<title>The titlepage for the Standard Ebooks edition of The Gadfly, by Ethel Voynich</title>
	<g>
		<path d="m 381.19078,68.245613 18.33919,0 0,61.754387 17.59064,0 0,-61.754387 18.33918,0 0,-15.438597 -54.26901,0 0,15.438597 z"/>
		<path d="m 464.38523,99.029239 24.88889,0 0,30.970761 17.59064,0 0,-77.192984 -17.59064,0 0,30.783626 -24.88889,0 0,-30.783626 -17.59064,0 0,77.192984 17.59064,0 0,-30.970761 z"/>
		<path d="m 567.23026,52.807016 -44.16374,0 0,77.192984 44.16374,0 0,-15.4386 -26.5731,0 0,-15.532161 25.4503,0 0,-15.438597 -25.4503,0 0,-15.345029 26.5731,0 0,-15.438597 z"/>
		<path d="m 682.72881,86.771929 -35.64913,0 0,13.567251 17.77778,0 c 0,9.45029 -8.32749,14.87719 -16.74854,14.87719 -10.8538,0 -19.64912,-10.66666 -19.64912,-23.766078 0,-13.380117 8.79532,-24.140352 19.64912,-24.140352 6.83041,0 12.72515,2.713451 17.21638,9.918129 L 676.83407,64.59649 c -6.73684,-8.140351 -16.18714,-13.192983 -29.75439,-13.192983 -21.7076,0 -37.61403,17.871346 -37.61403,40.046785 0,22.081868 16.8421,39.953218 37.61403,39.953218 15.1579,0 31.4386,-8.32749 35.64913,-27.88304 l 0,-16.748541 z"/>
		<path d="m 734.61768,52.807016 -16.2807,0 L 687.17908,130 l 18.90059,0 5.7076,-15.4386 29.38012,0 5.7076,15.4386 18.90059,0 -31.1579,-77.192984 z m 0.5614,46.31579 -17.40351,0 8.60819,-22.45614 0.18714,0 8.60818,22.45614 z"/>
		<path d="m 773.69517,52.807016 0,77.192984 22.36257,0 c 21.23977,0 38.92398,-16.09357 38.92398,-38.643276 0,-22.45614 -17.77778,-38.549708 -38.92398,-38.549708 l -22.36257,0 z m 17.59064,61.473684 0,-45.754385 2.71345,0 c 13.09942,0 21.98831,10.011696 21.98831,22.923977 -0.0936,12.912278 -8.98246,22.830408 -21.98831,22.830408 l -2.71345,0 z"/>
		<path d="m 892.4057,52.807016 -44.63158,0 0,77.192984 17.59064,0 0,-30.970761 24.98246,0 0,-15.438597 -24.98246,0 0,-15.345029 27.04094,0 0,-15.438597 z"/>
		<path d="m 923.36183,52.807016 -17.59064,0 0,77.192984 44.16374,0 0,-15.4386 -26.5731,0 0,-61.754384 z"/>
		<path d="m 947.85453,52.807016 28.44444,42.5731 0,34.619884 17.59065,0 0,-34.619884 28.44448,-42.5731 -21.1462,0 -16.09361,24.701755 -16.09356,-24.701755 -21.1462,0 z"/>
	</g>
	<g>
		<path d="m 417.72259,232.10526 -33.12281,0 0,57.89474 33.12281,0 0,-11.57895 -19.92982,0 0,-11.64912 19.08771,0 0,-11.57895 -19.08771,0 0,-11.50877 19.92982,0 0,-11.57895 z"/>
		<path d="m 426.6579,243.68421 13.75438,0 0,46.31579 13.19299,0 0,-46.31579 13.75438,0 0,-11.57895 -40.70175,0 0,11.57895 z"/>
		<path d="m 490.30373,266.77193 18.66667,0 0,23.22807 13.19298,0 0,-57.89474 -13.19298,0 0,23.08772 -18.66667,0 0,-23.08772 -13.19298,0 0,57.89474 13.19298,0 0,-23.22807 z"/>
		<path d="m 568.68749,232.10526 -33.1228,0 0,57.89474 33.1228,0 0,-11.57895 -19.92982,0 0,-11.64912 19.08772,0 0,-11.57895 -19.08772,0 0,-11.50877 19.92982,0 0,-11.57895 z"/>
		<path d="m 594.46492,232.10526 -13.19299,0 0,57.89474 33.12281,0 0,-11.57895 -19.92982,0 0,-46.31579 z"/>
		<path d="m 662.14584,290 10.38597,0 24.2807,-57.89474 -14.87719,0 -14.5965,38.03509 -14.59649,-38.03509 -14.87719,0 L 662.14584,290 Z"/>
		<path d="m 699.2127,261.01754 c 0,16.91228 12.07018,30.03509 29.19299,30.03509 16.63157,0 29.1228,-13.12281 29.1228,-30.03509 0,-16.91228 -13.05263,-29.96491 -29.1228,-29.96491 -15.92983,0 -29.19299,13.05263 -29.19299,29.96491 z m 14.24562,0 c 0,-8.63157 4.77193,-17.26315 14.94737,-17.26315 10.24561,0 14.87719,8.63158 14.87719,17.26315 0,8.63158 -4.35088,17.26316 -14.87719,17.26316 -10.80702,0 -14.94737,-8.63158 -14.94737,-17.26316 z"/>
		<path d="m 762.03399,232.10526 21.33334,31.92983 0,25.96491 13.19298,0 0,-25.96491 21.33333,-31.92983 -15.85965,0 -12.07017,18.52632 -12.07018,-18.52632 -15.85965,0 z"/>
		<path d="m 838.21492,254.07018 0.14035,0 23.01754,35.92982 13.19298,0 0,-57.89474 -13.19298,0 0,35.92983 -0.14035,0 -23.01754,-35.92983 -13.19299,0 0,57.89474 13.19299,0 0,-35.92982 z"/>
		<path d="m 901.19187,232.10526 -13.19298,0 0,57.89474 13.19298,0 0,-57.89474 z"/>
		<path d="m 943.26862,278.07018 c -13.26316,0 -19.08772,-9.26316 -19.08772,-17.05264 0,-7.71929 5.82456,-16.98245 19.08772,-16.98245 6.73684,0 11.36842,3.57895 11.36842,3.57895 l 5.61403,-11.22807 c 0,0 -6.45614,-5.33334 -19.01754,-5.33334 -16.42105,0 -31.36842,13.47369 -31.36842,30.10527 0,16.5614 15.01754,29.89473 31.36842,29.89473 12.5614,0 19.01754,-5.33333 19.01754,-5.33333 l -5.61403,-11.22807 c 0,0 -4.63158,3.57895 -11.36842,3.57895 z"/>
		<path d="m 983.56028,266.77193 18.66662,0 0,23.22807 13.193,0 0,-57.89474 -13.193,0 0,23.08772 -18.66662,0 0,-23.08772 -13.19298,0 0,57.89474 13.19298,0 0,-23.22807 z"/>
	</g>
</svg>

<?xml version="1.0" encoding="utf-8"?>
<svg xmlns="http://www.w3.org/2000/svg" xmlns:svg="http://www.w3.org/2000/svg" version="1.1" viewBox="0 0 1400 340">
	<title>The titlepage for the Standard Ebooks edition of The Gadfly, by Ethel Voynich</title>
	<g aria-label="THE GADFLY">
		<path d="m 381.19078,68.245613 h 18.33919 V 130 h 17.59064 V 68.245613 h 18.33918 V 52.807016 h -54.26901 z"/>
		<path d="m 464.38523,99.029239 h 24.88889 V 130 h 17.59064 V 52.807016 H 489.27412 V 83.590642 H 464.38523 V 52.807016 H 446.79459 V 130 h 17.59064 z"/>
		<path d="M 567.23026,52.807016 H 523.06652 V 130 h 44.16374 v -15.4386 h -26.5731 V 99.029239 h 25.4503 V 83.590642 h -25.4503 V 68.245613 h 26.5731 z"/>
		<path d="m 682.72881,86.771929 h -35.64913 v 13.567251 h 17.77778 c 0,9.45029 -8.32749,14.87719 -16.74854,14.87719 -10.8538,0 -19.64912,-10.66666 -19.64912,-23.766078 0,-13.380117 8.79532,-24.140352 19.64912,-24.140352 6.83041,0 12.72515,2.713451 17.21638,9.918129 L 676.83407,64.59649 c -6.73684,-8.140351 -16.18714,-13.192983 -29.75439,-13.192983 -21.7076,0 -37.61403,17.871346 -37.61403,40.046785 0,22.081868 16.8421,39.953218 37.61403,39.953218 15.1579,0 31.4386,-8.32749 35.64913,-27.88304 z"/>
		<path d="m 734.61768,52.807016 h -16.2807 L 687.17908,130 h 18.90059 l 5.7076,-15.4386 h 29.38012 L 746.87499,130 h 18.90059 z m 0.5614,46.31579 h -17.40351 l 8.60819,-22.45614 h 0.18714 z"/>
		<path d="M 773.69517,52.807016 V 130 h 22.36257 c 21.23977,0 38.92398,-16.09357 38.92398,-38.643276 0,-22.45614 -17.77778,-38.549708 -38.92398,-38.549708 z M 791.28581,114.2807 V 68.526315 h 2.71345 c 13.09942,0 21.98831,10.011696 21.98831,22.923977 -0.0936,12.912278 -8.98246,22.830408 -21.98831,22.830408 z"/>
		<path d="M 892.4057,52.807016 H 847.77412 V 130 h 17.59064 V 99.029239 h 24.98246 V 83.590642 H 865.36476 V 68.245613 h 27.04094 z"/>
		<path d="M 923.36183,52.807016 H 905.77119 V 130 h 44.16374 v -15.4386 h -26.5731 z"/>
		<path d="m 947.85453,52.807016 28.44444,42.5731 V 130 h 17.59065 V 95.380116 l 28.44448,-42.5731 h -21.1462 L 985.09429,77.508771 969.00073,52.807016 Z"/>
	</g>
	<g aria-label="ETHEL VOYNICH">
		<path d="M 417.72259,232.10526 H 384.59978 V 290 h 33.12281 v -11.57895 h -19.92982 v -11.64912 h 19.08771 v -11.57895 h -19.08771 v -11.50877 h 19.92982 z"/>
		<path d="m 426.6579,243.68421 h 13.75438 V 290 h 13.19299 v -46.31579 h 13.75438 V 232.10526 H 426.6579 Z"/>
		<path d="M 490.30373,266.77193 H 508.9704 V 290 h 13.19298 V 232.10526 H 508.9704 v 23.08772 H 490.30373 V 232.10526 H 477.11075 V 290 h 13.19298 z"/>
		<path d="m 568.68749,232.10526 h -33.1228 V 290 h 33.1228 v -11.57895 h -19.92982 v -11.64912 h 19.08772 v -11.57895 h -19.08772 v -11.50877 h 19.92982 z"/>
		<path d="M 594.46492,232.10526 H 581.27193 V 290 h 33.12281 v -11.57895 h -19.92982 z"/>
		<path d="m 662.14584,290 h 10.38597 l 24.2807,-57.89474 h -14.87719 l -14.5965,38.03509 -14.59649,-38.03509 h -14.87719 z"/>
		<path d="m 699.2127,261.01754 c 0,16.91228 12.07018,30.03509 29.19299,30.03509 16.63157,0 29.1228,-13.12281 29.1228,-30.03509 0,-16.91228 -13.05263,-29.96491 -29.1228,-29.96491 -15.92983,0 -29.19299,13.05263 -29.19299,29.96491 z m 14.24562,0 c 0,-8.63157 4.77193,-17.26315 14.94737,-17.26315 10.24561,0 14.87719,8.63158 14.87719,17.26315 0,8.63158 -4.35088,17.26316 -14.87719,17.26316 -10.80702,0 -14.94737,-8.63158 -14.94737,-17.26316 z"/>
		<path d="m 762.03399,232.10526 21.33334,31.92983 V 290 h 13.19298 v -25.96491 l 21.33333,-31.92983 h -15.85965 l -12.07017,18.52632 -12.07018,-18.52632 z"/>
		<path d="m 838.21492,254.07018 h 0.14035 L 861.37281,290 h 13.19298 v -57.89474 h -13.19298 v 35.92983 h -0.14035 L 838.21492,232.10526 H 825.02193 V 290 h 13.19299 z"/>
		<path d="M 901.19187,232.10526 H 887.99889 V 290 h 13.19298 z"/>
		<path d="m 943.26862,278.07018 c -13.26316,0 -19.08772,-9.26316 -19.08772,-17.05264 0,-7.71929 5.82456,-16.98245 19.08772,-16.98245 6.73684,0 11.36842,3.57895 11.36842,3.57895 l 5.61403,-11.22807 c 0,0 -6.45614,-5.33334 -19.01754,-5.33334 -16.42105,0 -31.36842,13.47369 -31.36842,30.10527 0,16.5614 15.01754,29.89473 31.36842,29.89473 12.5614,0 19.01754,-5.33333 19.01754,-5.33333 l -5.61403,-11.22807 c 0,0 -4.63158,3.57895 -11.36842,3.57895 z"/>
		<path d="m 983.56028,266.77193 h 18.66662 V 290 h 13.193 v -57.89474 h -13.193 v 23.08772 H 983.56028 V 232.10526 H 970.3673 V 290 h 13.19298 z"/>
	</g>
</svg>
